icons/lines/calendar-circle.svg

<svg xmlns="http://www.w3.org/2000/svg" width="24" height="24" viewBox="0 0 24 24" fill="none" stroke="currentColor" stroke-width="2" stroke-linecap="round" stroke-linejoin="round" >
  <path d="M12 22C17.5228 22 22 17.5228 22 12C22 6.47715 17.5228 2 12 2C6.47715 2 2 6.47715 2 12C2 17.5228 6.47715 22 12 22Z" stroke-miterlimit="10"/>
  <path d="M9.88965 5.82996V7.82996" stroke-miterlimit="10"/>
  <path d="M14.1104 5.82996V7.82996" stroke-miterlimit="10"/>
  <path d="M7.53027 10.14H16.4703" stroke-miterlimit="10"/>
  <path d="M13.5 17.67H10.5C8 17.67 6.5 15.87 6.5 13.67V10.67C6.5 8.46998 8 6.66998 10.5 6.66998H13.5C16 6.66998 17.5 8.46998 17.5 10.67V13.67C17.5 15.87 16 17.67 13.5 17.67Z" stroke-miterlimit="10"/>
  </svg>

<svg xmlns="http://www.w3.org/2000/svg" width="24" height="24" viewBox="0 0 24 24" fill="none" stroke="currentColor" stroke-width="2" stroke-linecap="round" stroke-linejoin="round">
  <path d="M10.5 17.67c-2.5 0-4-1.8-4-4v-3c0-2.2 1.5-4 4-4h3c2.5 0 4 1.8 4 4v3c0 2.2-1.5 4-4 4z" />
  <path d="M14.11 5.83v2" />
  <path d="M7.53 10.14h8.94" />
  <path d="M9.89 5.83v2" />
  <circle cx="12" cy="12" r="10" />
</svg>
